bin/themes/NameStrIcon/CAPITALIZE_STRONG_Usb.svg

<svg width="322.401" height="150.402" viewBox="0 0 322.401 150.402" xmlns="http://www.w3.org/2000/svg"><g id="svgGroup" stroke-linecap="round" fill-rule="evenodd" font-size="9pt" stroke="#000" stroke-width="0.25mm" fill="#000" style="stroke:#000;stroke-width:0.25mm;fill:#000"><path d="M 0 94.8 L 0 8 L 19 8 L 19 91.8 A 78.963 78.963 0 0 0 19.801 103.421 Q 20.723 109.606 22.707 114.626 A 35.311 35.311 0 0 0 27.2 122.8 Q 35.4 133.8 51.8 133.8 A 42.771 42.771 0 0 0 61.808 132.702 A 26.909 26.909 0 0 0 77.2 123.1 A 34.763 34.763 0 0 0 82.793 112.31 Q 85.6 103.709 85.6 91.8 L 85.6 8 L 104 8 L 104 94 Q 104 111.6 97.5 124.3 A 47.183 47.183 0 0 1 86.262 138.792 A 44.856 44.856 0 0 1 79.3 143.7 A 50.047 50.047 0 0 1 62.178 149.608 A 65.631 65.631 0 0 1 51.8 150.4 A 65.413 65.413 0 0 1 35.789 148.55 A 44.984 44.984 0 0 1 13.8 136 A 46.638 46.638 0 0 1 2.883 116.707 Q 0.721 109.463 0.18 100.762 A 96.193 96.193 0 0 1 0 94.8 Z M 126 139.6 L 133.6 124.6 Q 138.8 129 146.7 131.9 A 48.146 48.146 0 0 0 161.922 134.775 A 54.929 54.929 0 0 0 163.6 134.8 Q 174.8 134.8 180.5 131.1 A 14.898 14.898 0 0 0 183.567 128.514 A 10.105 10.105 0 0 0 186.2 121.6 A 14.246 14.246 0 0 0 185.572 117.305 A 12.424 12.424 0 0 0 184.1 114.2 A 12.769 12.769 0 0 0 182.243 112.012 Q 180.075 109.934 176.4 107.9 A 56.925 56.925 0 0 0 172.412 105.914 Q 168.18 103.99 162.203 101.891 A 207.202 207.202 0 0 0 160.2 101.2 A 93.233 93.233 0 0 1 151.405 97.714 Q 147.177 95.766 143.825 93.59 A 38.669 38.669 0 0 1 138.3 89.3 Q 131 82.4 131 70.2 A 24.24 24.24 0 0 1 138.896 52.17 A 34.926 34.926 0 0 1 141.5 49.9 A 35.531 35.531 0 0 1 153.572 43.807 Q 161.009 41.6 170.6 41.6 Q 180.6 41.6 188.4 43.7 A 77.539 77.539 0 0 1 196.669 46.411 A 62.221 62.221 0 0 1 202.4 49 L 197.4 63.8 A 49.057 49.057 0 0 0 190.064 60.269 A 60.383 60.383 0 0 0 185.1 58.6 A 50.048 50.048 0 0 0 176.134 56.905 A 63.674 63.674 0 0 0 169.8 56.6 Q 163.129 56.6 158.515 58.328 A 17.018 17.018 0 0 0 154 60.8 Q 150.415 63.589 149.21 66.73 A 9.058 9.058 0 0 0 148.6 70 A 9.841 9.841 0 0 0 151.59 77.103 A 14.165 14.165 0 0 0 152.8 78.2 Q 156.93 81.544 168.797 85.467 A 168.919 168.919 0 0 0 169.2 85.6 Q 186.317 91.306 194.466 98.058 A 29.893 29.893 0 0 1 196.8 100.2 A 27.194 27.194 0 0 1 204.569 118.693 A 35.79 35.79 0 0 1 204.6 120.2 Q 204.6 133.697 194.098 141.71 A 33.237 33.237 0 0 1 193.3 142.3 A 40.104 40.104 0 0 1 180.547 148.246 Q 172.797 150.4 163 150.4 A 79.98 79.98 0 0 1 151.277 149.578 A 61.896 61.896 0 0 1 141.7 147.4 Q 132.873 144.613 126.895 140.271 A 36.458 36.458 0 0 1 126 139.6 Z M 245.4 139.4 L 245.4 148 L 228.6 148 L 228.6 0 L 246.6 0 L 246.6 54.8 Q 249.679 51.259 254.95 47.896 A 66.628 66.628 0 0 1 258.3 45.9 A 33.167 33.167 0 0 1 268.761 42.256 A 44.849 44.849 0 0 1 276.6 41.6 Q 288.6 41.6 299.1 47.9 Q 309.6 54.2 316 66.1 Q 322.119 77.477 322.388 93.516 A 88.548 88.548 0 0 1 322.4 95 Q 322.4 107.4 318.4 117.6 A 58.733 58.733 0 0 1 312.077 129.609 A 50.965 50.965 0 0 1 307.7 135.1 A 49.788 49.788 0 0 1 295.437 144.928 A 46.605 46.605 0 0 1 292.6 146.4 A 40.011 40.011 0 0 1 277.867 150.321 A 38.419 38.419 0 0 1 275.4 150.4 Q 266.4 150.4 258.5 147.1 Q 250.6 143.8 245.4 139.4 Z M 246.6 70.8 L 246.6 126.4 A 35.98 35.98 0 0 0 253.86 130.77 A 43.604 43.604 0 0 0 257.4 132.2 A 38.924 38.924 0 0 0 269.728 134.391 A 44.076 44.076 0 0 0 270.6 134.4 A 33.98 33.98 0 0 0 280.631 132.964 A 29.494 29.494 0 0 0 287.9 129.6 A 31.903 31.903 0 0 0 298.203 118.78 A 39.295 39.295 0 0 0 299.7 116 A 41.736 41.736 0 0 0 303.395 103.906 A 54.956 54.956 0 0 0 304 95.6 A 56.094 56.094 0 0 0 303.206 85.915 Q 302.218 80.28 300.001 75.617 A 34.676 34.676 0 0 0 299.7 75 Q 295.4 66.4 288.3 61.8 Q 281.2 57.2 272.6 57.2 A 29.482 29.482 0 0 0 261.347 59.326 A 28.108 28.108 0 0 0 257.1 61.5 Q 250.2 65.8 246.6 70.8 Z" vector-effect="non-scaling-stroke"/></g></svg>

<?xml version="1.0" encoding="utf-8"?>
<!-- Generator: Adobe Illustrator 28.4.1, SVG Export Plug-In . SVG Version: 6.00 Build 0)  -->
<svg version="1.1" id="Layer_1" xmlns="http://www.w3.org/2000/svg" xmlns:xlink="http://www.w3.org/1999/xlink" x="0px" y="0px"
	 viewBox="0 0 322.4 150.4" style="enable-background:new 0 0 322.4 150.4;" xml:space="preserve">
<style type="text/css">
	.st0{fill-rule:evenodd;clip-rule:evenodd;stroke:#000000;stroke-width:0.7087;stroke-linecap:round;}
</style>
<g id="svgGroup">
	<path vector-effect="non-scaling-stroke" class="st0" d="M0,94.8V8h19v83.8c0,3.9,0.2,7.8,0.8,11.6c0.6,4.1,1.6,7.9,2.9,11.2
		c1.1,2.9,2.6,5.7,4.5,8.2c5.5,7.3,13.7,11,24.6,11c3.4,0,6.7-0.3,10-1.1c6.1-1.3,11.5-4.7,15.4-9.6c2.5-3.2,4.4-6.9,5.6-10.8
		c1.9-5.7,2.8-12.6,2.8-20.5V8H104v86c0,11.7-2.2,21.8-6.5,30.3c-2.8,5.5-6.6,10.4-11.2,14.5c-2.2,1.9-4.5,3.5-7,4.9
		c-5.3,3-11.1,5-17.1,5.9c-3.4,0.5-6.9,0.8-10.4,0.8c-5.4,0-10.8-0.6-16-1.8c-8.4-2-16-6.3-22-12.6c-5.1-5.5-8.9-12.1-10.9-19.3
		c-1.4-4.8-2.3-10.1-2.7-15.9C0.1,98.8,0,96.8,0,94.8z M126,139.6l7.6-15c3.5,2.9,7.8,5.4,13.1,7.3c4.9,1.8,10,2.7,15.2,2.9
		c0.6,0,1.1,0,1.7,0c7.5,0,13.1-1.2,16.9-3.7c1.1-0.7,2.2-1.6,3.1-2.6c1.7-1.9,2.7-4.4,2.6-6.9c0-1.5-0.2-2.9-0.6-4.3
		c-0.3-1.1-0.8-2.1-1.5-3.1c-0.5-0.8-1.2-1.5-1.9-2.2c-1.4-1.4-3.4-2.8-5.8-4.1c-1.3-0.7-2.6-1.4-4-2c-2.8-1.3-6.2-2.6-10.2-4
		c-0.7-0.2-1.3-0.5-2-0.7c-3-1-5.9-2.2-8.8-3.5c-2.8-1.3-5.3-2.7-7.6-4.1c-2-1.3-3.8-2.7-5.5-4.3c-4.9-4.6-7.3-11-7.3-19.1
		c0-6.9,2.8-13.4,7.9-18c0.8-0.8,1.7-1.6,2.6-2.3c3.6-2.8,7.7-4.9,12.1-6.1c5-1.5,10.6-2.2,17-2.2c6.7,0,12.6,0.7,17.8,2.1
		c2.8,0.7,5.6,1.7,8.3,2.7c2,0.8,3.9,1.6,5.7,2.6l-5,14.8c-2.3-1.4-4.8-2.6-7.3-3.5c-1.6-0.6-3.3-1.2-5-1.7c-2.9-0.8-5.9-1.4-9-1.7
		c-2.1-0.2-4.2-0.3-6.3-0.3c-4.4,0-8.2,0.6-11.3,1.7c-1.6,0.6-3.1,1.4-4.5,2.5c-2.4,1.9-4,3.8-4.8,5.9c-0.4,1-0.6,2.2-0.6,3.3
		c0,2.7,1.1,5.2,3,7.1c0.4,0.4,0.8,0.8,1.2,1.1c2.8,2.2,8.1,4.7,16,7.3c0.1,0,0.3,0.1,0.4,0.1c11.4,3.8,19.8,8,25.3,12.5
		c0.8,0.7,1.6,1.4,2.3,2.1c4.9,4.9,7.6,11.6,7.8,18.5c0,0.5,0,1,0,1.5c0,9-3.5,16.2-10.5,21.5c-0.3,0.2-0.5,0.4-0.8,0.6
		c-3.9,2.7-8.2,4.7-12.8,5.9c-5.2,1.4-11,2.2-17.5,2.2c-3.9,0-7.8-0.3-11.7-0.8c-3.2-0.5-6.4-1.2-9.6-2.2
		c-5.9-1.9-10.8-4.2-14.8-7.1C126.6,140.1,126.3,139.8,126,139.6z M245.4,139.4v8.6h-16.8V0h18v54.8c2.1-2.4,4.8-4.7,8.3-6.9
		c1.1-0.7,2.2-1.4,3.3-2c3.3-1.8,6.8-3,10.5-3.6c2.6-0.4,5.2-0.7,7.8-0.7c8,0,15.5,2.1,22.5,6.3s12.6,10.3,16.9,18.2
		c4.1,7.6,6.2,16.7,6.4,27.4c0,0.5,0,1,0,1.5c0,8.3-1.3,15.8-4,22.6c-1.6,4.2-3.8,8.3-6.3,12c-1.3,1.9-2.8,3.8-4.4,5.5
		c-3.5,3.9-7.7,7.2-12.3,9.8c-0.9,0.5-1.9,1-2.8,1.5c-4.6,2.2-9.6,3.6-14.7,3.9c-0.8,0.1-1.6,0.1-2.5,0.1c-6,0-11.6-1.1-16.9-3.3
		S248.9,142.3,245.4,139.4z M246.6,70.8v55.6c2.2,1.7,4.7,3.2,7.3,4.4c1.2,0.5,2.3,1,3.5,1.4c4,1.4,8.1,2.1,12.3,2.2
		c0.3,0,0.6,0,0.9,0c3.4,0,6.8-0.5,10-1.4c2.6-0.8,5-1.9,7.3-3.4c4.2-2.7,7.8-6.4,10.3-10.8c0.5-0.9,1-1.8,1.5-2.8
		c1.8-3.8,3.1-7.9,3.7-12.1c0.4-2.7,0.6-5.5,0.6-8.3c0-3.2-0.2-6.5-0.8-9.7c-0.7-3.8-1.7-7.2-3.2-10.3c-0.1-0.2-0.2-0.4-0.3-0.6
		c-2.9-5.7-6.7-10.1-11.4-13.2c-4.7-3.1-10-4.6-15.7-4.6c-3.9,0-7.7,0.7-11.3,2.1c-1.5,0.6-2.9,1.3-4.2,2.2
		C252.5,64.4,249,67.5,246.6,70.8z"/>
</g>
</svg>
